X: 15035
T: George Washington's Favourite Cotillion
R: barndance
M: 4/4
K: Dmajor
(3ABc|:d4 A3 G|F2 EF D2 GF|E2 c2 E2 c2|(DE)FG (AB)cA|
d2 d2 A3 G|F2 EF D2 ef|gfed cdef|1 d2 dd d2 A2:|2 d2 dd d2 ag]
|:fg ef d2 bg|fg ef d2 gf|e2 cc c2 gf|fg ef d2 ag|
fg ef d2 ag|fg ef d2 ef|gf ed cd ef|1 d2 dd d2 ag:|2 d2 dd d2||

